!!!OTL-incipit: Wo e kleins Huettle steht, ist e kleins Guetle Wo e kleins Huettle steht, ist e kleins Gut
!!!ARE: Europa, Mitteleuropa, Deutschland, Wuerttemberg
!!!SCT: D0241
!!!TXL: @@BAR
!!!YEM: Copyright 1995, estate of Helmut Schaffrath.
**kern
*ICvox
*M3/8
*k[b-]
*F:
=1
{8c
8f
8f
=2
8.e
16d
8c
=3
8b-/
8g
8e
=4
8g
8f
8r}
=5
{8c
8f
8f
=6
8.e
16d
8c
=7
8b-/
8g
8e
=8
4.f}
=9
{8.g
16a
8g
=10
8.g
16a
8g
=11
8.g
16a
8g
=12
8.g
16a
8g}
=13
{8f
8e
8d
=14
8c
4b-
=15
8cc
8cc
16cc
16b-
=16
4a
8r}
=17
{8f
8e
8d
=18
8c
4b-
=19
8cc
8cc
16cc
16b-
=20
4a
8r}
==
!!!AGN: Liebes - Lied, Liebeslust
!! Inzipit = Transposition zum Lied
!!!ONB: ESAC (Essen Associative Code) Database: DVA
!!!AMT: simple triple
!!!AIN: vox
!!!EED: Helmut Schaffrath
!!!EEV: 1.0
!!!YOR: https://freidok.uni-freiburg.de/data/150373
!!!EFL: A88337
!!!ENC: Anna Maria Matuszewska
!!!EEV: 2025/06/04
*-
